X: 36658
T: Shark's Favourite
R: slide
M: 12/8
K: Eminor
|:B2e efe B2eg2e|fed B2dA2df2d|
B2e efe B2eg2b|a2f d'2 f f2 e e3:|
|:e2bg2bf2be2 g|fed a2d baf a2 f|
e2bg2bf2ef2e|d2BA2FG2EE3:|

